X:1
T:I’m Kneeling at the Cross
T:I’m Kneeling at the Cross
T:Silas Jones Vail
T:John Parker, 1873
T:Public Domain Courtesy of the Cyber Hymnal™
C:Silas Jones Vail
Z:Public Domain
Z:Courtesy of the Cyber Hymnal™
%%score ( 1 2 ) ( 3 4 )
L:1/8
Q:1/4=95
M:3/4
K:Eb
V:1 treble 
V:2 treble 
V:3 bass 
V:4 bass 
V:1
 [EB]2 | [EB]3 [EG] [GB][Ge] | [Ee][Ed] [Ec]2 [Ee]2 | [EB]3 [Ec] [EB][EG] | [EG] [DF]3 [DB]2 | %5
w: 1.~The|blood, the blood is|all my plea, Nor|should a sin- ner|won- der For|
w: 2.~I|rest, I rest su-|preme- ly blest, With-|out a care to|can- ker; No|
w: 3.~My|cup, my cup it|run- neth o’er, With|joy ce- les- tial|brim- ming; On|
w: 4.~The|blood, the blood is|all my song, I|have no bliss with-|out it; From|
 [EB]3 [EG] [GB][Ge] | [Ee][Ed] [Ec]2 [Ee]2 | [Ee]3 [GB] [FA][DF] | [DF] E3 || %9
w: guilt- y stain and|sting- ing pain Hath|torn my heart a-|sun- der!|
w: gloom- y night, my|path is light, My|hope holds like an|an- chor.|
w: wings of love I|soar a- bove, His|hal- le- lu- jahs|hymn- ing.|
w: ev- ery stain it|makes me clean, My|life and lip shall|shout it.|
[M:4/4]"^Refrain" E2 | [DF]3 [FA] [EG][DF] E>[EF] | (G4 B4) | [Ec][Ec][Ec][Ec] [EB]2 [EG]2 | %13
w: ||||
w: But|now I’m kneel- ing at the|cross, *|Wash- ing in the crim- son|
w: ||||
w: ||||
 ([DF]4 [FA]2) [DF]2 | [EG]3 [EG] [FA]>[=EG] [FA]>[Ac] | [GB]4 [Ae]4 | [Ge][GB][EG]E [EG]2 [DF]2 | %17
w: ||||
w: tide, * And|cleansed, I tar- ry at the|fount- ain,|O- pened at my Sav- ior’s|
w: ||||
w: ||||
 E4 z2 |] %18
w: |
w: side.|
w: |
w: |
V:2
 x2 | x6 | x6 | x6 | x6 | x6 | x6 | x6 | x E3 ||[M:4/4] E2 | x6 E3/2 x/ | E8 | x8 | x8 | x8 | x8 | %16
 x3 E x4 | E4 x2 |] %18
V:3
 [E,G,]2 | [E,G,]3 [E,B,] [E,E][E,B,] | [G,B,][G,B,] A,2 [A,C]2 | [G,E]3 [A,E] [G,B,][E,B,] | %4
 [B,,B,] [B,,A,]3 [B,,F,]2 | [E,G,]3 [E,B,] [E,E][E,B,] | [G,B,][G,B,] A,2 [A,C]2 | %7
 [G,B,]3 [E,E] [A,,C][B,,B,] | [B,,A,] [E,G,]3 ||[M:4/4] [E,G,]2 | %10
 [B,,B,]3 [B,,B,] [B,,B,][B,,A,] [E,G,]>[E,A,] | (B,4 G,4) | A,A,A,A, [G,B,]2 [E,B,]2 | %13
 [B,,B,]6 [B,,B,]2 | [E,B,]3 [E,B,] [B,,B,]>[B,,B,] [B,,B,]>[B,,D] | [E,E]4 [A,,C]4 | %16
 [B,,B,][B,,E][B,,B,][B,,G,] [B,,B,]2 [B,,A,]2 | [E,G,]4 z2 |] %18
V:4
 x2 | x6 | x2 A,2 x2 | x6 | x6 | x6 | x2 A,2 x2 | x6 | x4 ||[M:4/4] x2 | x8 | E,8 | A,A,A,A, x4 | %13
 x8 | x8 | x8 | x8 | x6 |] %18

